icons/svg/office/parish.svg

<?xml version="1.0" encoding="UTF-8" standalone="no"?>
<!-- Created with Inkscape (http://www.inkscape.org/) -->

<svg
   xmlns:dc="http://purl.org/dc/elements/1.1/"
   xmlns:cc="http://creativecommons.org/ns#"
   xmlns:rdf="http://www.w3.org/1999/02/22-rdf-syntax-ns#"
   xmlns:svg="http://www.w3.org/2000/svg"
   xmlns="http://www.w3.org/2000/svg"
   xmlns:sodipodi="http://sodipodi.sourceforge.net/DTD/sodipodi-0.dtd"
   xmlns:inkscape="http://www.inkscape.org/namespaces/inkscape"
   version="1.0"
   width="580"
   height="580"
   id="svg2"
   sodipodi:version="0.32"
   inkscape:version="0.91 r"
   sodipodi:docname="parish.svg"
   inkscape:output_extension="org.inkscape.output.svg.inkscape">
  <metadata
     id="metadata10">
    <rdf:RDF>
      <cc:Work
         rdf:about="">
        <dc:format>image/svg+xml</dc:format>
        <dc:type
           rdf:resource="http://purl.org/dc/dcmitype/StillImage" />
        <cc:license
           rdf:resource="http://web.resource.org/cc/PublicDomain" />
        <dc:language>en</dc:language>
        <dc:title></dc:title>
      </cc:Work>
    </rdf:RDF>
  </metadata>
  <sodipodi:namedview
     inkscape:window-height="1004"
     inkscape:window-width="1920"
     inkscape:pageshadow="2"
     inkscape:pageopacity="0.0"
     guidetolerance="10.0"
     gridtolerance="10.0"
     objecttolerance="10.0"
     borderopacity="1.0"
     bordercolor="#666666"
     pagecolor="#ffffff"
     id="base"
     showgrid="false"
     inkscape:zoom="0.5"
     inkscape:cx="598.10702"
     inkscape:cy="422.67711"
     inkscape:window-x="1680"
     inkscape:window-y="0"
     inkscape:current-layer="svg2"
     inkscape:window-maximized="1" />
  <defs
     id="defs4">
    <inkscape:perspective
       sodipodi:type="inkscape:persp3d"
       inkscape:vp_x="0 : 290 : 1"
       inkscape:vp_y="0 : 1000 : 0"
       inkscape:vp_z="580 : 290 : 1"
       inkscape:persp3d-origin="290 : 193.33333 : 1"
       id="perspective12" />
  </defs>
  <g
     id="g1327">
    <path
       d="M 66.275,1.768 C 24.94,1.768 1.704,23.139 1.704,66.804 L 1.704,516.927 C 1.704,557.771 22.598,579.156 63.896,579.156 L 515.92,579.156 C 557.227,579.156 578.149,558.84 578.149,516.927 L 578.149,66.804 C 578.149,24.203 557.227,1.768 514.627,1.768 C 514.624,1.768 66.133,1.625 66.275,1.768 z"
       style="fill:#111111;stroke:#eeeeee;stroke-width:3.40799999"
       id="path1329" />
  </g>
  <path
     inkscape:connector-curvature="0"
     style="color:#000000;clip-rule:nonzero;display:inline;overflow:visible;visibility:visible;opacity:1;isolation:auto;mix-blend-mode:normal;color-interpolation:sRGB;color-interpolation-filters:linearRGB;solid-color:#000000;solid-opacity:1;fill:#ffffff;fill-opacity:1;fill-rule:nonzero;stroke:none;stroke-width:25;stroke-linecap:round;stroke-linejoin:round;stroke-miterlimit:4;stroke-dasharray:none;stroke-dashoffset:0;stroke-opacity:1;marker:none;color-rendering:auto;image-rendering:auto;shape-rendering:auto;text-rendering:auto;enable-background:accumulate"
     d="m 143.29087,308.48637 c -15.16319,0 -28.17493,9.21233 -33.74414,22.34765 l -2.89258,35.31446 0,38.75586 c 0,4.71422 0.89771,9.21518 2.51954,13.35546 l -79.132816,0 0,26.78907 0,10.71679 0,92.875 24.779038,0 0,-92.875 254.074738,0 0,92.875 24.77513,0 0,-92.875 0.002,0 0,-37.50586 -79.13281,0 c 1.62182,-4.14028 2.51953,-8.64126 2.51953,-13.35546 l 0,-38.75391 -2.89258,-35.31836 c -5.5692,-13.13175 -18.58094,-22.3457 -33.74414,-22.3457 l -77.13086,0 z m -7.71289,49.17382 8.67774,0 0,60.59961 -8.67774,0 z m 83.87891,0 8.67773,0 0,60.59961 -8.67773,0 z"
     id="path4178"
     sodipodi:nodetypes="sccsccccccccccccccsccscscccccccccc" />
  <path
     inkscape:connector-curvature="0"
     style="color:#000000;clip-rule:nonzero;display:inline;overflow:visible;visibility:visible;opacity:1;isolation:auto;mix-blend-mode:normal;color-interpolation:sRGB;color-interpolation-filters:linearRGB;solid-color:#000000;solid-opacity:1;fill:#ffffff;fill-opacity:1;fill-rule:nonzero;stroke:none;stroke-width:25;stroke-linecap:round;stroke-linejoin:round;stroke-miterlimit:4;stroke-dasharray:none;stroke-dashoffset:0;stroke-opacity:1;marker:none;color-rendering:auto;image-rendering:auto;shape-rendering:auto;text-rendering:auto;enable-background:accumulate"
     d="m 181.85728,203.24223 c -24.76076,0 -44.83397,20.07127 -44.83399,44.83203 0,24.76075 20.07323,44.83203 44.83399,44.83203 24.76076,0 44.83203,-20.07128 44.83203,-44.83203 0,-24.76076 -20.07127,-44.83203 -44.83203,-44.83203 z"
     id="path4176" />
  <path
     d="m 552.03,363.613 -271.26374,0 0,-233.24656 122.35202,-36.094169 0,-25.666067 -17.87268,0 0,-26.811728 17.87268,0 0,-19.702476 26.81173,0 0,19.702476 17.87448,0 0,26.811728 -17.87448,0 0,25.253412 L 552.03,130.37491 Z m -251.81836,-18.44538 232.37404,0 0,-197.12839 -115.74598,-34.27427 -116.62806,34.67613 z"
     id="path17"
     inkscape:connector-curvature="0"
     style="fill:#ffffff"
     sodipodi:nodetypes="ccccccccccccccccccccccc" />
  <g
     transform="matrix(1.22276,0,0,1.22276,-168.09565,70.326517)"
     id="g15">
    <circle
       style="fill:#ffffff"
       id="circle17"
       r="22.016001"
       cy="97.227997"
       cx="519.72998" />
    <path
       style="fill:#ffffff"
       inkscape:connector-curvature="0"
       id="path19-8"
       d="m 482.801,155.21 0,19.031 c 0,8.636 6.086,15.849 14.203,17.587 l 0,-40.787 4.262,0 0,56.54 36.93,0 0,-56.54 4.261,0 0,40.787 c 8.117,-1.739 14.203,-8.951 14.203,-17.587 l 0,-19.03 -1.42,-17.344 c -2.735,-6.449 -9.124,-10.972 -16.57,-10.972 l -37.878,0 c -7.446,0 -13.835,4.522 -16.569,10.973 l -1.422,17.342 z" />
  </g>
  <g
     transform="matrix(1.22276,0,0,1.22276,-168.09565,70.326517)"
     id="g21">
    <circle
       style="fill:#ffffff"
       id="circle23"
       r="22.016001"
       cy="97.227997"
       cx="438.73001" />
    <path
       style="fill:#ffffff"
       inkscape:connector-curvature="0"
       id="path25"
       d="m 401.801,155.21 0,19.031 c 0,8.636 6.086,15.849 14.203,17.587 l 0,-40.787 4.262,0 0,56.54 36.93,0 0,-56.54 4.261,0 0,40.787 c 8.117,-1.739 14.203,-8.951 14.203,-17.587 l 0,-19.03 -1.42,-17.344 c -2.735,-6.449 -9.124,-10.972 -16.57,-10.972 l -37.878,0 c -7.446,0 -13.835,4.522 -16.569,10.973 l -1.422,17.342 z" />
  </g>
</svg>

<svg width="580" height="580" viewBox="0 0 580 580" fill="none" xmlns="http://www.w3.org/2000/svg">
<g clip-path="url(#clip0)">
<path d="M66.275 1.7679C24.94 1.7679 1.70398 23.1389 1.70398 66.8039V516.927C1.70398 557.771 22.598 579.156 63.896 579.156H515.92C557.227 579.156 578.149 558.84 578.149 516.927V66.8039C578.149 24.2029 557.227 1.7679 514.627 1.7679C514.624 1.7679 66.133 1.6249 66.275 1.7679Z" fill="#111111" stroke="#EEEEEE" stroke-width="3.408"/>
<path d="M143.291 308.486C128.128 308.486 115.116 317.699 109.547 330.834L106.654 366.148V404.904C106.654 409.619 107.552 414.119 109.174 418.26H30.0409V445.049V455.766V548.641H54.8199V455.766H308.895V548.641H333.67V455.766H333.672V418.26H254.539C256.161 414.119 257.059 409.618 257.059 404.904V366.15L254.166 330.832C248.597 317.7 235.585 308.486 220.422 308.486H143.291H143.291ZM135.578 357.66H144.256V418.26H135.578V357.66ZM219.457 357.66H228.135V418.26H219.457V357.66Z" fill="white"/>
<path d="M181.857 203.242C157.097 203.242 137.023 223.313 137.023 248.074C137.023 272.835 157.097 292.906 181.857 292.906C206.618 292.906 226.689 272.835 226.689 248.074C226.689 223.313 206.618 203.242 181.857 203.242Z" fill="white"/>
<path d="M552.03 363.613H280.766V130.366L403.118 94.2723V68.6062H385.246V41.7945H403.118V22.092H429.93V41.7945H447.804V68.6062H429.93V93.8597L552.03 130.375V363.613ZM300.212 345.168H532.586V148.039L416.84 113.765L300.212 148.441V345.168Z" fill="white"/>
<path d="M467.41 216.133C482.277 216.133 494.33 204.081 494.33 189.213C494.33 174.345 482.277 162.293 467.41 162.293C452.542 162.293 440.489 174.345 440.489 189.213C440.489 204.081 452.542 216.133 467.41 216.133Z" fill="white"/>
<path d="M422.254 260.111V283.381C422.254 293.941 429.696 302.761 439.621 304.886V255.013H444.832V324.148H489.989V255.013H495.199V304.886C505.124 302.76 512.566 293.941 512.566 283.381V260.112L510.83 238.905C507.485 231.019 499.673 225.489 490.569 225.489H444.253C435.148 225.489 427.336 231.018 423.993 238.906L422.254 260.111V260.111Z" fill="white"/>
<path d="M368.366 216.133C383.233 216.133 395.286 204.081 395.286 189.213C395.286 174.345 383.233 162.293 368.366 162.293C353.498 162.293 341.446 174.345 341.446 189.213C341.446 204.081 353.498 216.133 368.366 216.133Z" fill="white"/>
<path d="M323.21 260.111V283.381C323.21 293.941 330.652 302.761 340.577 304.886V255.013H345.789V324.148H390.945V255.013H396.155V304.886C406.081 302.76 413.522 293.941 413.522 283.381V260.112L411.786 238.905C408.442 231.019 400.63 225.489 391.525 225.489H345.209C336.104 225.489 328.292 231.018 324.949 238.906L323.21 260.111V260.111Z" fill="white"/>
</g>
<defs>
<clipPath id="clip0">
<path d="M0 0H580V580H0V0Z" fill="white"/>
</clipPath>
</defs>
</svg>
